lib/logo_tmp/nrk-logo-nrk-p3-urort-on-light.svg

<svg width="120" height="16" viewBox="0 0 120 16" fill="none" xmlns="http://www.w3.org/2000/svg">
<path d="M82.7198 9.46308C82.7282 10.0512 82.6586 10.6379 82.5128 11.2078C82.3964 11.6711 82.1775 12.1023 81.8721 12.4695C81.566 12.816 81.1755 13.0775 80.7385 13.2285C80.1958 13.4114 79.6254 13.4981 79.0529 13.4848C78.3858 13.4999 77.7224 13.3827 77.1009 13.1398C76.5548 12.9153 76.1072 12.5027 75.8392 11.9767C75.519 11.2828 75.3702 10.5222 75.4054 9.7588V1.00598H73.3354V10.0952C73.3132 10.9129 73.4645 11.726 73.7793 12.481C74.048 13.1037 74.4682 13.6492 75.0016 14.068C75.5385 14.4777 76.1518 14.776 76.8055 14.9453C77.5131 15.1322 78.2422 15.2249 78.9741 15.221C80.0735 15.2639 81.1657 15.0264 82.1481 14.531C82.9507 14.0972 83.5958 13.4211 83.9913 12.599C84.4103 11.6845 84.6158 10.6868 84.5923 9.68125V1.00697H82.7194L82.7198 9.46308Z" fill="black"/>
<path d="M91.6503 4.87984C91.2815 4.97845 90.9294 5.13126 90.6055 5.33327C90.2691 5.54307 89.9582 5.79115 89.6789 6.07255C89.6323 6.11888 89.5869 6.17112 89.5409 6.21975V4.75137L87.5301 5.04708V15.0028H89.5409V7.55507C89.6903 7.45057 89.845 7.35373 90.0042 7.26494C90.2015 7.15648 90.4056 7.06099 90.6153 6.97908C90.8188 6.90022 91.0258 6.83122 91.2363 6.77208C91.4527 6.71185 91.6736 6.669 91.8968 6.64394C92.1357 6.61772 92.3763 6.61113 92.6163 6.62422L92.8529 4.77141C92.4488 4.7422 92.0427 4.77882 91.6503 4.87984Z" fill="black"/>
<path d="M103.144 4.49508L102.04 5.66019C101.895 5.55207 101.743 5.45267 101.586 5.36251C100.762 4.92378 99.8384 4.70651 98.9052 4.73198C97.9669 4.71067 97.0393 4.93482 96.2142 5.38222C95.4526 5.8085 94.8298 6.44498 94.4202 7.21565C93.9749 8.0803 93.7546 9.04316 93.7795 10.0154C93.7542 10.9809 93.964 11.9381 94.3906 12.8046C94.5037 13.0192 94.6337 13.2245 94.7793 13.4184L93.6809 14.5891L94.5878 15.4168L95.6392 14.2806C95.7908 14.3939 95.9497 14.4969 96.115 14.5891C96.9196 15.0114 97.8186 15.2217 98.7271 15.1999C99.6716 15.2198 100.605 14.9957 101.438 14.5494C102.216 14.1196 102.855 13.4768 103.281 12.6965C103.745 11.8236 103.976 10.8457 103.951 9.85736C103.974 8.9161 103.761 7.98416 103.33 7.14665C103.213 6.93212 103.08 6.72721 102.93 6.53387L104.07 5.32308L103.144 4.49508ZM96.2635 7.90598C96.4845 7.41228 96.853 6.99909 97.3182 6.72312C97.809 6.45075 98.3638 6.31462 98.9249 6.32884C99.3711 6.31863 99.8145 6.4026 100.226 6.57526C100.448 6.67491 100.652 6.80886 100.832 6.97218L96.2457 11.9257C95.9901 11.2808 95.8687 10.5905 95.8889 9.89712C95.8655 9.21391 95.9934 8.53399 96.2635 7.90598ZM101.468 11.9668C101.243 12.4766 100.868 12.9061 100.394 13.1989C99.9179 13.4744 99.3759 13.6142 98.8263 13.6034C98.2815 13.6161 97.7445 13.4724 97.2788 13.1894C97.1476 13.105 97.0249 13.008 96.9124 12.8999L101.501 7.94541C101.57 8.10247 101.628 8.26381 101.675 8.42841C101.805 8.90689 101.868 9.40104 101.862 9.8968C101.886 10.6079 101.751 11.3153 101.468 11.9681V11.9668Z" fill="black"/>
<path d="M110.595 4.87984C110.227 4.97851 109.875 5.13132 109.551 5.33327C109.214 5.54315 108.903 5.79123 108.624 6.07255C108.577 6.11888 108.532 6.17112 108.486 6.21975V4.75137L106.475 5.04708V15.0028H108.486V7.55507C108.635 7.45057 108.79 7.35373 108.949 7.26494C109.147 7.15648 109.351 7.06099 109.56 6.97908C109.764 6.90022 109.971 6.83122 110.181 6.77208C110.398 6.71191 110.619 6.66906 110.842 6.64394C111.081 6.61772 111.321 6.61113 111.561 6.62422L111.798 4.77141C111.394 4.74222 110.988 4.77883 110.595 4.87984Z" fill="black"/>
<path d="M119.152 13.357C119.059 13.3764 118.958 13.3964 118.846 13.4158L118.511 13.4749C118.403 13.4941 118.295 13.5073 118.185 13.5144C118.08 13.5213 117.981 13.5242 117.89 13.5242C117.588 13.5327 117.288 13.472 117.012 13.3468C116.776 13.2347 116.58 13.0522 116.451 12.8244C116.312 12.5673 116.244 12.2785 116.253 11.9868V6.52565H119.033L119.25 4.94851H116.253V1.83333L114.243 2.54304V4.94851H112.725L112.508 6.52565H114.243V12.4005C114.234 12.7924 114.294 13.1827 114.42 13.5538C114.522 13.8474 114.679 14.1185 114.884 14.3522C115.071 14.5605 115.299 14.7282 115.554 14.8451C115.815 14.9648 116.089 15.0509 116.372 15.1014C116.651 15.1529 116.935 15.1793 117.219 15.1802C117.43 15.1802 117.636 15.1736 117.841 15.1608C118.045 15.148 118.231 15.128 118.403 15.1014C118.574 15.0747 118.734 15.0452 118.885 15.013C119.036 14.9808 119.165 14.9505 119.27 14.9239L119.388 13.288C119.311 13.3172 119.232 13.3403 119.152 13.357Z" fill="black"/>
<path d="M54.0553 1.00586H49.7372C49.7372 1.00586 52.1909 5.03384 52.2186 5.08454C52.311 5.20102 52.3627 5.34466 52.3656 5.49336C52.3685 5.64205 52.3225 5.78758 52.2347 5.90759L49.7372 10.0014H54.0559C54.0559 10.0014 56.1386 6.596 56.4233 6.12324C56.5584 5.94213 56.6305 5.72171 56.6284 5.49577C56.6263 5.26982 56.5503 5.05078 56.4118 4.87219C56.1047 4.34906 56.104 4.34941 54.0553 1.00586Z" fill="black"/>
<path d="M49.1792 1.00591H45.3333V14.998H49.1792V1.00591Z" fill="black"/>
<path d="M67.5809 3.32389C67.4357 3.07632 66.1504 1.00586 66.1504 1.00586H56.9073L58.9264 4.39253H63.7949L61.7866 7.68472L64.0253 11.446L61.8647 14.997H65.8107C66.4451 13.9593 67.3936 12.354 67.5918 12.0251C67.7277 11.8434 67.8001 11.622 67.7981 11.395C67.796 11.1681 67.7195 10.9481 67.5802 10.7688C67.3827 10.4317 66.3259 8.75567 65.6945 7.7239C65.6945 7.7239 67.3936 4.90841 67.5918 4.57952C67.7276 4.39788 67.8001 4.17669 67.7981 3.94988C67.7962 3.72307 67.7199 3.50316 67.5809 3.32389Z" fill="black"/>
<path d="M58.69 8.13937C58.0816 9.13296 57.0643 10.7981 56.8737 11.1228C56.7396 11.2954 56.6658 11.5073 56.6638 11.726C56.6618 11.9446 56.7316 12.1578 56.8625 12.333C57.0535 12.6497 58.0787 14.328 58.69 15.3289C59.301 14.329 60.3266 12.6507 60.5172 12.333C60.6481 12.1578 60.7179 11.9446 60.7159 11.726C60.714 11.5074 60.6403 11.2955 60.5063 11.1228C60.3157 10.7981 59.2981 9.13296 58.69 8.13937Z" fill="black"/>
<path d="M0 15.0001V1.00135H4.59339V15.0001H0ZM10.8428 3.22932L13.4844 15.0001H8.45737L5.30307 1.00135H8.12254C8.76907 0.992962 9.39641 1.22087 9.88691 1.6422C10.3782 2.04586 10.7158 2.60623 10.8428 3.22932ZM14.1744 15.0001V1.00135H18.7678V15.0001H14.1744ZM22.2372 6.32486C21.7422 6.32969 21.2552 6.20018 20.828 5.95021C20.4064 5.70655 20.0563 5.35637 19.8127 4.93478C19.5624 4.50747 19.4329 4.0203 19.4378 3.52512C19.4321 3.03295 19.5618 2.54869 19.8127 2.12525C20.0589 1.70824 20.4086 1.36186 20.828 1.11969C21.2553 0.870001 21.7423 0.740515 22.2372 0.745029C22.7292 0.73973 23.2133 0.869332 23.6369 1.11969C24.0521 1.36398 24.3981 1.71007 24.6424 2.12525C24.893 2.54881 25.0226 3.03299 25.0172 3.52512C25.0218 4.02026 24.8923 4.50735 24.6424 4.93478C24.4007 5.35452 24.0542 5.70441 23.6369 5.95021C23.2133 6.20105 22.7289 6.33069 22.2366 6.32486H22.2372ZM25.7269 15.0001V1.00135H30.3207V15.0001H25.7269ZM36.136 8.65135C36.1489 8.66494 36.2475 8.82594 36.4317 9.1344C36.6159 9.44285 36.8558 9.83721 37.1513 10.3174C37.447 10.7974 37.759 11.3067 38.0874 11.8454C38.4157 12.3841 38.7247 12.8935 39.0143 13.3735C39.3028 13.8535 39.6313 14.3957 40 15.0001H34.9531C34.6375 14.4875 34.3515 14.0241 34.0952 13.6101C33.8389 13.196 33.5665 12.7491 33.2778 12.2693C32.9884 11.79 32.7024 11.3234 32.4196 10.8695C32.1368 10.4155 31.8938 10.018 31.6905 9.67665C31.4863 9.33512 31.3449 9.10506 31.2663 8.98654C31.0713 8.69243 30.9559 8.35276 30.9315 8.00072C30.951 7.66284 31.0597 7.33622 31.2466 7.05404C31.3254 6.9226 31.47 6.68925 31.6803 6.35407C31.8906 6.01889 32.137 5.62131 32.4196 5.16126C32.7021 4.70121 32.9882 4.23129 33.2778 3.75152C33.5674 3.27175 33.8398 2.82152 34.0952 2.4009C34.3519 1.98072 34.6379 1.5141 34.9531 1.00103H40L36.0962 7.36949C35.9754 7.55857 35.9073 7.77648 35.8991 8.00072C35.9121 8.23612 35.9942 8.46245 36.1353 8.65135H36.136Z" fill="black"/>
</svg>

<svg xmlns="http://www.w3.org/2000/svg" viewBox="0 0 120 16"><path fill="#000" d="M82.72 9.463a6.656 6.656 0 0 1-.207 1.745 3.188 3.188 0 0 1-.64 1.261 2.68 2.68 0 0 1-1.135.76 4.92 4.92 0 0 1-1.685.256 5.048 5.048 0 0 1-1.952-.345 2.47 2.47 0 0 1-1.262-1.163 4.769 4.769 0 0 1-.434-2.218V1.006h-2.07v9.09c-.022.817.13 1.63.444 2.385a4.066 4.066 0 0 0 1.223 1.587c.537.41 1.15.708 1.803.877.708.187 1.437.28 2.17.276a6.487 6.487 0 0 0 3.173-.69 4.33 4.33 0 0 0 1.843-1.932 6.633 6.633 0 0 0 .601-2.918V1.007H82.72v8.456ZM91.65 4.88c-.369.098-.72.251-1.044.453-.337.21-.648.458-.927.74-.047.046-.092.098-.138.147V4.75l-2.01.296v9.956h2.01V7.555a5.183 5.183 0 0 1 1.074-.576 6.83 6.83 0 0 1 .621-.207 4.22 4.22 0 0 1 1.38-.148l.237-1.853c-.404-.029-.81.008-1.203.109ZM103.144 4.495 102.04 5.66a4.553 4.553 0 0 0-.454-.297 5.39 5.39 0 0 0-2.68-.631 5.389 5.389 0 0 0-2.692.65 4.546 4.546 0 0 0-1.794 1.834 5.791 5.791 0 0 0-.64 2.8 5.961 5.961 0 0 0 .61 2.789c.114.214.244.42.39.613l-1.1 1.171.908.828 1.051-1.136c.152.113.31.216.476.308a5.345 5.345 0 0 0 2.612.61 5.495 5.495 0 0 0 2.711-.65 4.676 4.676 0 0 0 1.843-1.852 5.74 5.74 0 0 0 .67-2.84 5.623 5.623 0 0 0-.621-2.71 4.559 4.559 0 0 0-.4-.613l1.14-1.21-.926-.829Zm-6.88 3.411a2.62 2.62 0 0 1 1.054-1.183 3.147 3.147 0 0 1 1.607-.394c.446-.01.89.074 1.301.246.222.1.426.234.606.397l-4.586 4.954a5.103 5.103 0 0 1-.357-2.029 4.638 4.638 0 0 1 .374-1.991Zm5.204 4.06c-.225.51-.6.94-1.074 1.233a3.011 3.011 0 0 1-1.568.404 2.852 2.852 0 0 1-1.547-.414 2.413 2.413 0 0 1-.367-.29l4.589-4.954c.069.157.127.319.174.483.13.479.193.973.187 1.469a4.8 4.8 0 0 1-.394 2.071v-.001ZM110.595 4.88c-.368.099-.72.251-1.044.453a5.11 5.11 0 0 0-.927.74c-.047.046-.092.098-.138.147V4.75l-2.011.296v9.956h2.011V7.555c.149-.104.304-.201.463-.29.198-.109.402-.204.611-.286.204-.079.411-.148.621-.207a4.257 4.257 0 0 1 1.38-.148l.237-1.853c-.404-.029-.81.008-1.203.109ZM119.152 13.357a9.01 9.01 0 0 1-.306.059l-.335.059c-.108.02-.216.032-.326.04a4.51 4.51 0 0 1-.295.01 1.99 1.99 0 0 1-.878-.178 1.272 1.272 0 0 1-.561-.523 1.653 1.653 0 0 1-.198-.837V6.526h2.78l.217-1.577h-2.997V1.833l-2.01.71v2.406h-1.518l-.217 1.577h1.735V12.4c-.009.392.051.783.177 1.154.102.293.259.564.464.798.187.208.415.376.67.493.261.12.535.206.818.256.279.052.563.078.847.08.211 0 .417-.007.622-.02.204-.013.39-.033.562-.06a8.871 8.871 0 0 0 .867-.177l.118-1.636c-.077.03-.156.052-.236.069ZM54.055 1.006h-4.318s2.454 4.028 2.482 4.079a.68.68 0 0 1 .016.823L49.737 10h4.319s2.083-3.405 2.367-3.878a1.033 1.033 0 0 0-.011-1.25c-.307-.524-.308-.524-2.357-3.867ZM49.18 1.006h-3.847v13.992h3.846V1.006ZM67.58 3.324a381.01 381.01 0 0 0-1.43-2.318h-9.243l2.02 3.387h4.868l-2.008 3.292 2.238 3.761-2.16 3.551h3.946c.634-1.038 1.583-2.643 1.78-2.972a1.037 1.037 0 0 0-.01-1.256c-.198-.337-1.255-2.013-1.886-3.045l1.897-3.144a1.036 1.036 0 0 0-.011-1.256Z"/><path fill="#000" d="M58.69 8.14a436.99 436.99 0 0 0-1.816 2.983.998.998 0 0 0-.012 1.21c.191.317 1.217 1.995 1.828 2.996.611-1 1.637-2.678 1.827-2.996a.999.999 0 0 0-.01-1.21c-.191-.325-1.209-1.99-1.817-2.984ZM0 15V1.001h4.593v14H0ZM10.843 3.23 13.484 15H8.457L5.303 1.001h2.82a2.655 2.655 0 0 1 1.764.641c.491.404.829.964.956 1.587ZM14.174 15V1.001h4.594v14h-4.594Zm8.063-8.675a2.737 2.737 0 0 1-1.409-.375 2.778 2.778 0 0 1-1.015-1.015 2.735 2.735 0 0 1-.375-1.41 2.685 2.685 0 0 1 .375-1.4 2.812 2.812 0 0 1 3.824-1.005c.415.244.761.59 1.005 1.005.251.424.38.908.375 1.4.005.495-.125.982-.375 1.41a2.8 2.8 0 0 1-1.005 1.015c-.424.251-.908.38-1.4.375ZM25.727 15V1.001h4.594v14h-4.594Zm10.409-6.349c.013.014.111.175.296.483.184.309.424.703.72 1.183a384.573 384.573 0 0 1 1.862 3.056c.289.48.617 1.023.986 1.627h-5.047l-.858-1.39c-.256-.414-.529-.86-.817-1.34-.29-.48-.576-.947-.858-1.4a71.337 71.337 0 0 1-.73-1.193 21.112 21.112 0 0 0-.424-.69A2.04 2.04 0 0 1 30.932 8c.019-.338.128-.665.315-.947.078-.131.223-.365.433-.7a216.7 216.7 0 0 0 1.598-2.603l.817-1.35.858-1.4H40l-3.904 6.368c-.12.19-.189.407-.197.632.013.235.095.461.236.65h.001Z"/></svg>
